Catalina-light/apps/scalable/steam.svg

<?xml version="1.0" encoding="UTF-8" standalone="no"?>
<!-- Created with Inkscape (http://www.inkscape.org/) -->

<svg
   xmlns:dc="http://purl.org/dc/elements/1.1/"
   xmlns:cc="http://creativecommons.org/ns#"
   xmlns:rdf="http://www.w3.org/1999/02/22-rdf-syntax-ns#"
   xmlns:svg="http://www.w3.org/2000/svg"
   xmlns="http://www.w3.org/2000/svg"
   xmlns:xlink="http://www.w3.org/1999/xlink"
   xmlns:sodipodi="http://sodipodi.sourceforge.net/DTD/sodipodi-0.dtd"
   xmlns:inkscape="http://www.inkscape.org/namespaces/inkscape"
   version="1.1"
   id="svg2"
   width="128"
   height="128"
   viewBox="0 0 127.99999 128"
   sodipodi:docname="steam.svg"
   inkscape:version="0.92.4 5da689c313, 2019-01-14">
  <metadata
     id="metadata8">
    <rdf:RDF>
      <cc:Work
         rdf:about="">
        <dc:format>image/svg+xml</dc:format>
        <dc:type
           rdf:resource="http://purl.org/dc/dcmitype/StillImage" />
        <dc:title></dc:title>
      </cc:Work>
    </rdf:RDF>
  </metadata>
  <defs
     id="defs6">
    <linearGradient
       inkscape:collect="always"
       id="linearGradient925">
      <stop
         style="stop-color:#000000;stop-opacity:1;"
         offset="0"
         id="stop921" />
      <stop
         style="stop-color:#000000;stop-opacity:0;"
         offset="1"
         id="stop923" />
    </linearGradient>
    <linearGradient
       inkscape:collect="always"
       id="linearGradient903">
      <stop
         style="stop-color:#babdbf;stop-opacity:1"
         offset="0"
         id="stop899" />
      <stop
         id="stop909"
         offset="0.8018862"
         style="stop-color:#babdbf;stop-opacity:1" />
      <stop
         id="stop907"
         offset="0.89150888"
         style="stop-color:#b0b4b6;stop-opacity:1" />
      <stop
         style="stop-color:#9fa3a6;stop-opacity:1"
         offset="1"
         id="stop901" />
    </linearGradient>
    <linearGradient
       inkscape:collect="always"
       id="linearGradient883">
      <stop
         style="stop-color:#292929;stop-opacity:1"
         offset="0"
         id="stop879" />
      <stop
         id="stop887"
         offset="0.59815329"
         style="stop-color:#999b9d;stop-opacity:1" />
      <stop
         style="stop-color:#9a9c9e;stop-opacity:1;"
         offset="0.86268198"
         id="stop891" />
      <stop
         style="stop-color:#929495;stop-opacity:1"
         offset="0.91355288"
         id="stop889" />
      <stop
         id="stop893"
         offset="0.96188027"
         style="stop-color:#7d7f80;stop-opacity:1" />
      <stop
         style="stop-color:#676868;stop-opacity:0.4627451;"
         offset="0.98222864"
         id="stop895" />
      <stop
         style="stop-color:#545454;stop-opacity:0"
         offset="1"
         id="stop881" />
    </linearGradient>
    <linearGradient
       inkscape:collect="always"
       id="linearGradient866">
      <stop
         style="stop-color:#f0f4f7;stop-opacity:1;"
         offset="0"
         id="stop862" />
      <stop
         style="stop-color:#d7e2ea;stop-opacity:1"
         offset="1"
         id="stop864" />
    </linearGradient>
    <linearGradient
       inkscape:collect="always"
       id="linearGradient847">
      <stop
         style="stop-color:#5b5b5b;stop-opacity:1"
         offset="0"
         id="stop843" />
      <stop
         id="stop851"
         offset="0.89302319"
         style="stop-color:#5b5b5b;stop-opacity:1" />
      <stop
         style="stop-color:#545454;stop-opacity:1"
         offset="0.91441858"
         id="stop853" />
      <stop
         id="stop855"
         offset="0.95087975"
         style="stop-color:#3d3d3d;stop-opacity:1;" />
      <stop
         style="stop-color:#1f1f1f;stop-opacity:1"
         offset="1"
         id="stop845" />
    </linearGradient>
    <linearGradient
       inkscape:collect="always"
       id="linearGradient833">
      <stop
         style="stop-color:#000000;stop-opacity:1;"
         offset="0"
         id="stop829" />
      <stop
         id="stop837"
         offset="0.88176268"
         style="stop-color:#272727;stop-opacity:0.32967034" />
      <stop
         style="stop-color:#080808;stop-opacity:0.04395605"
         offset="0.97540265"
         id="stop839" />
      <stop
         style="stop-color:#000000;stop-opacity:0"
         offset="1"
         id="stop831" />
    </linearGradient>
    <linearGradient
       inkscape:collect="always"
       id="linearGradient823">
      <stop
         style="stop-color:#c4c7ca;stop-opacity:1"
         offset="0"
         id="stop819" />
      <stop
         style="stop-color:#919395;stop-opacity:1"
         offset="1"
         id="stop821" />
    </linearGradient>
    <linearGradient
       inkscape:collect="always"
       xlink:href="#linearGradient823"
       id="linearGradient825"
       x1="1003.3898"
       y1="317.37286"
       x2="1157.6271"
       y2="515.67798"
       gradientUnits="userSpaceOnUse"
       gradientTransform="translate(-916.73172,-377.00207)" />
    <radialGradient
       inkscape:collect="always"
       xlink:href="#linearGradient833"
       id="radialGradient835"
       cx="1083.4745"
       cy="419.91525"
       fx="1083.4745"
       fy="419.91525"
       r="168.22035"
       gradientUnits="userSpaceOnUse"
       gradientTransform="matrix(0.93612871,0,0,0.89823553,-865.74913,-350.3713)" />
    <radialGradient
       inkscape:collect="always"
       xlink:href="#linearGradient847"
       id="radialGradient849"
       cx="1086.017"
       cy="416.52542"
       fx="1086.017"
       fy="416.52542"
       r="91.1017"
       gradientUnits="userSpaceOnUse"
       gradientTransform="translate(-939.61308,-393.95123)" />
    <linearGradient
       inkscape:collect="always"
       xlink:href="#linearGradient866"
       id="linearGradient868"
       x1="1111.682"
       y1="368.18811"
       x2="981.68475"
       y2="539.57159"
       gradientUnits="userSpaceOnUse"
       gradientTransform="translate(-939.61308,-393.95123)" />
    <radialGradient
       inkscape:collect="always"
       xlink:href="#linearGradient883"
       id="radialGradient885"
       cx="1089.9189"
       cy="416.65521"
       fx="1089.9189"
       fy="416.65521"
       r="41.647476"
       gradientTransform="matrix(1,0,0,1.0000012,-939.61308,-393.95174)"
       gradientUnits="userSpaceOnUse" />
    <radialGradient
       inkscape:collect="always"
       xlink:href="#linearGradient903"
       id="radialGradient905"
       cx="736.22882"
       cy="491.8432"
       fx="736.22882"
       fy="491.8432"
       r="20.550848"
       gradientUnits="userSpaceOnUse"
       gradientTransform="matrix(1.0721647,-1.0973163e-6,1.1184182e-6,1.0927829,-727.87792,-421.60778)" />
    <radialGradient
       inkscape:collect="always"
       xlink:href="#linearGradient925"
       id="radialGradient927"
       cx="55.296612"
       cy="121.85592"
       fx="55.296612"
       fy="121.85592"
       r="45.55085"
       gradientUnits="userSpaceOnUse"
       gradientTransform="matrix(0.94777701,0,0,0.95759871,1.192838,5.5905782)" />
  </defs>
  <sodipodi:namedview
     pagecolor="#ffffff"
     bordercolor="#666666"
     borderopacity="1"
     objecttolerance="10"
     gridtolerance="10"
     guidetolerance="10"
     inkscape:pageopacity="0"
     inkscape:pageshadow="2"
     inkscape:window-width="1920"
     inkscape:window-height="1031"
     id="namedview4"
     showgrid="false"
     inkscape:zoom="1.668772"
     inkscape:cx="-71.29053"
     inkscape:cy="-5.060124"
     inkscape:window-x="0"
     inkscape:window-y="26"
     inkscape:window-maximized="1"
     inkscape:current-layer="svg2" />
  <g
     id="g942"
     transform="matrix(0.39751146,0,0,0.39751146,5.4819356,54.870796)">
    <path
       d="M 101.69492,122.27964 A 48.093224,48.093224 0 0 1 53.640518,170.37285 48.093224,48.093224 0 0 1 5.5085351,122.35728 48.093224,48.093224 0 0 1 53.48523,74.186558 48.093224,48.093224 0 0 1 101.69467,122.12435"
       sodipodi:open="true"
       sodipodi:end="6.2799564"
       sodipodi:start="0"
       sodipodi:ry="48.093224"
       sodipodi:rx="48.093224"
       sodipodi:cy="122.27964"
       sodipodi:cx="53.601696"
       sodipodi:type="arc"
       id="path919"
       style="opacity:1;fill:url(#radialGradient927);fill-opacity:1;stroke:none;stroke-width:10.03314877;stroke-linecap:round;stroke-linejoin:round;stroke-miterlimit:4;stroke-dasharray:none;stroke-dashoffset:0;stroke-opacity:1;paint-order:fill markers stroke" />
    <path
       style="opacity:1;fill:url(#radialGradient835);fill-opacity:1;stroke:none;stroke-width:9.48328304;stroke-linecap:round;stroke-linejoin:round;stroke-miterlimit:4;stroke-dasharray:none;stroke-dashoffset:0;stroke-opacity:1;paint-order:fill markers stroke"
       id="path827"
       sodipodi:type="arc"
       sodipodi:cx="148.52242"
       sodipodi:cy="26.811466"
       sodipodi:rx="165.25426"
       sodipodi:ry="165.25426"
       sodipodi:start="0"
       sodipodi:end="6.2799564"
       sodipodi:open="true"
       d="M 313.77667,26.811466 A 165.25426,165.25426 0 0 1 148.65581,192.06567 165.25426,165.25426 0 0 1 -16.731627,27.078261 165.25426,165.25426 0 0 1 148.12222,-138.44231 165.25426,165.25426 0 0 1 313.77581,26.277876" />
    <path
       d="M 294.28525,22.574192 A 147.88136,147.88136 0 0 1 146.52326,170.45551 147.88136,147.88136 0 0 1 -1.4772853,22.81294 147.88136,147.88136 0 0 1 146.04576,-125.30674 147.88136,147.88136 0 0 1 294.28448,22.096698"
       sodipodi:open="true"
       sodipodi:end="6.2799564"
       sodipodi:start="0"
       sodipodi:ry="147.88136"
       sodipodi:rx="147.88136"
       sodipodi:cy="22.574192"
       sodipodi:cx="146.40388"
       sodipodi:type="arc"
       id="path817"
       style="opacity:1;fill:url(#linearGradient825);fill-opacity:1;stroke:none;stroke-width:8.4863224;stroke-linecap:round;stroke-linejoin:round;stroke-miterlimit:4;stroke-dasharray:none;stroke-dashoffset:0;stroke-opacity:1;paint-order:fill markers stroke" />
    <path
       d="M 237.50558,22.574192 A 91.1017,91.1017 0 0 1 146.47742,113.67586 91.1017,91.1017 0 0 1 55.302304,22.721271 91.1017,91.1017 0 0 1 146.18327,-68.527241 91.1017,91.1017 0 0 1 237.50511,22.280034"
       sodipodi:open="true"
       sodipodi:end="6.2799564"
       sodipodi:start="0"
       sodipodi:ry="91.1017"
       sodipodi:rx="91.1017"
       sodipodi:cy="22.574192"
       sodipodi:cx="146.40388"
       sodipodi:type="arc"
       id="path841"
       style="opacity:0.344;fill:url(#radialGradient849);fill-opacity:1;stroke:none;stroke-width:8.47290611;stroke-linecap:round;stroke-linejoin:round;stroke-miterlimit:4;stroke-dasharray:none;stroke-dashoffset:0;stroke-opacity:1;paint-order:fill markers stroke" />
    <path
       inkscape:connector-curvature="0"
       id="path857"
       d="m 148.28532,-37.44732 c -17.4477,0.0424 -33.2288,7.14938 -44.6406,18.60742 -13.3361,13.6473 -30.981,42.68779 -47.34178,65.30078 -20.0107,27.65762 -37.57407,51.93043 -38.89649,57.38477 -1.41785,5.84796 -2.56852,11.2464 -2.29883,16.37304 0.0369,22.49144 18.28978,40.69973 40.78125,40.68164 7.87575,-0.007 15.22725,-2.24621 21.45705,-6.12109 24.536,-16.62096 55.535,-38.50571 81.5644,-57.52735 25.024,-18.28688 42.4296,-30.22486 50.0723,-56.72265 1.6172,-5.60708 2.0863,-7.18253 2.6738,-14.75781 V 25.5683 c -0.1128,-34.89539 -28.4757,-63.1002 -63.3711,-63.01562 z m 1.92,18.5039 a 41.647392,41.647392 0 0 1 41.748,41.51172 v 0.13477 a 41.647392,41.647392 0 0 1 -41.6133,41.64843 41.647392,41.647392 0 0 1 -41.6816,-41.58007 41.647392,41.647392 0 0 1 41.5469,-41.71485 z m 0.6464,20.37305 a 21.872372,21.872372 0 0 0 -21.8183,21.9082 21.872372,21.872372 0 0 0 21.8887,21.83789 21.872372,21.872372 0 0 0 21.8554,-21.87304 v -0.0703 A 21.872372,21.872372 0 0 0 150.85172,1.42965 Z"
       style="opacity:1;fill:url(#linearGradient868);fill-opacity:1;stroke:none;stroke-width:8.43999958;stroke-linecap:round;stroke-linejoin:round;stroke-miterlimit:4;stroke-dasharray:none;stroke-dashoffset:0;stroke-opacity:1;paint-order:fill markers stroke" />
    <path
       inkscape:connector-curvature="0"
       id="path872"
       d="m 150.20532,-18.94342 a 41.647392,41.647392 0 0 0 -41.5469,41.71485 41.647392,41.647392 0 0 0 41.6816,41.58007 41.647392,41.647392 0 0 0 41.6133,-41.64843 V 22.5683 a 41.647392,41.647392 0 0 0 -41.748,-41.51172 z m 0.6464,20.37305 a 21.872372,21.872372 0 0 1 21.9258,21.80273 v 0.0703 a 21.872372,21.872372 0 0 1 -21.8554,21.87304 21.872372,21.872372 0 0 1 -21.8887,-21.83789 21.872372,21.872372 0 0 1 21.8183,-21.9082 z"
       style="opacity:0.48900003;fill:url(#radialGradient885);fill-opacity:1;stroke:none;stroke-width:16.23357582;stroke-linecap:round;stroke-linejoin:round;stroke-miterlimit:4;stroke-dasharray:none;stroke-dashoffset:0;stroke-opacity:1;paint-order:fill markers stroke" />
    <path
       d="M 82.031946,114.06842 A 20.550848,20.550848 0 0 1 61.497687,134.61926 20.550848,20.550848 0 0 1 40.930277,114.1016 20.550848,20.550848 0 0 1 61.431331,93.517633 20.550848,20.550848 0 0 1 82.031839,114.00206"
       sodipodi:open="true"
       sodipodi:end="6.2799564"
       sodipodi:start="0"
       sodipodi:ry="20.550848"
       sodipodi:rx="20.550848"
       sodipodi:cy="114.06842"
       sodipodi:cx="61.481098"
       sodipodi:type="arc"
       id="path897"
       style="opacity:1;fill:url(#radialGradient905);fill-opacity:1;stroke:none;stroke-width:8;stroke-linecap:round;stroke-linejoin:round;stroke-miterlimit:4;stroke-dasharray:none;stroke-dashoffset:0;stroke-opacity:1;paint-order:fill markers stroke" />
  </g>
</svg>

<svg width="128" height="128" version="1.1" viewBox="0 0 128 128" xmlns="http://www.w3.org/2000/svg">
<defs>
<linearGradient id="linearGradient825" x1="1003.4" x2="1157.6" y1="317.37" y2="515.68" gradientTransform="translate(-916.73 -377)" gradientUnits="userSpaceOnUse"/>
<radialGradient id="radialGradient835" cx="1083.5" cy="419.92" r="168.22" gradientTransform="matrix(.93613 0 0 .89824 -865.75 -350.37)" gradientUnits="userSpaceOnUse"/>
<radialGradient id="radialGradient849" cx="1086" cy="416.53" r="91.102" gradientTransform="translate(-939.61 -393.95)" gradientUnits="userSpaceOnUse"/>
<linearGradient id="linearGradient868" x1="1111.7" x2="981.68" y1="368.19" y2="539.57" gradientTransform="translate(-939.61 -393.95)" gradientUnits="userSpaceOnUse"/>
<radialGradient id="radialGradient885" cx="1089.9" cy="416.66" r="41.647" gradientTransform="matrix(1 0 0 1 -939.61 -393.95)" gradientUnits="userSpaceOnUse"/>
<radialGradient id="radialGradient905" cx="736.23" cy="491.84" r="20.551" gradientTransform="matrix(1.0722 -1.0973e-6 1.1184e-6 1.0928 -727.88 -421.61)" gradientUnits="userSpaceOnUse"/>
<radialGradient id="radialGradient927" cx="55.297" cy="121.86" r="45.551" gradientTransform="matrix(.94778 0 0 .9576 1.1928 5.5906)" gradientUnits="userSpaceOnUse"/>
</defs>
<g transform="matrix(.39751 0 0 .39751 5.4819 54.871)">
<path d="m101.69 122.28a48.093 48.093 0 0 1-48.054 48.093 48.093 48.093 0 0 1-48.132-48.016 48.093 48.093 0 0 1 47.977-48.171 48.093 48.093 0 0 1 48.209 47.938" fill="url(#radialGradient927)" style="paint-order:fill markers stroke"/>
<path d="m313.78 26.811a165.25 165.25 0 0 1-165.12 165.25 165.25 165.25 0 0 1-165.39-164.99 165.25 165.25 0 0 1 164.85-165.52 165.25 165.25 0 0 1 165.65 164.72" fill="url(#radialGradient835)" style="paint-order:fill markers stroke"/>
<path d="m294.29 22.574a147.88 147.88 0 0 1-147.76 147.88 147.88 147.88 0 0 1-148-147.64 147.88 147.88 0 0 1 147.52-148.12 147.88 147.88 0 0 1 148.24 147.4" fill="url(#linearGradient825)" style="paint-order:fill markers stroke"/>
<path d="m237.51 22.574a91.102 91.102 0 0 1-91.028 91.102 91.102 91.102 0 0 1-91.175-90.955 91.102 91.102 0 0 1 90.881-91.249 91.102 91.102 0 0 1 91.322 90.807" fill="url(#radialGradient849)" opacity=".344" style="paint-order:fill markers stroke"/>
<path d="m148.29-37.447c-17.448 0.0424-33.229 7.1494-44.641 18.607-13.336 13.647-30.981 42.688-47.342 65.301-20.011 27.658-37.574 51.93-38.896 57.385-1.4178 5.848-2.5685 11.246-2.2988 16.373 0.0369 22.491 18.29 40.7 40.781 40.682 7.8758-7e-3 15.227-2.2462 21.457-6.1211 24.536-16.621 55.535-38.506 81.564-57.527 25.024-18.287 42.43-30.225 50.072-56.723 1.6172-5.6071 2.0863-7.1825 2.6738-14.758v-0.20313c-0.1128-34.895-28.476-63.1-63.371-63.016zm1.92 18.504a41.647 41.647 0 0 1 41.748 41.512v0.13477a41.647 41.647 0 0 1-41.613 41.648 41.647 41.647 0 0 1-41.682-41.58 41.647 41.647 0 0 1 41.547-41.715zm0.6464 20.373a21.872 21.872 0 0 0-21.818 21.908 21.872 21.872 0 0 0 21.889 21.838 21.872 21.872 0 0 0 21.855-21.873v-0.0703a21.872 21.872 0 0 0-21.926-21.803z" fill="url(#linearGradient868)" style="paint-order:fill markers stroke"/>
<path d="m150.21-18.943a41.647 41.647 0 0 0-41.547 41.715 41.647 41.647 0 0 0 41.682 41.58 41.647 41.647 0 0 0 41.613-41.648v-0.13477a41.647 41.647 0 0 0-41.748-41.512zm0.6464 20.373a21.872 21.872 0 0 1 21.926 21.803v0.0703a21.872 21.872 0 0 1-21.855 21.873 21.872 21.872 0 0 1-21.889-21.838 21.872 21.872 0 0 1 21.818-21.908z" fill="url(#radialGradient885)" opacity=".489" style="paint-order:fill markers stroke"/>
<path d="m82.032 114.07a20.551 20.551 0 0 1-20.534 20.551 20.551 20.551 0 0 1-20.567-20.518 20.551 20.551 0 0 1 20.501-20.584 20.551 20.551 0 0 1 20.601 20.484" fill="url(#radialGradient905)" style="paint-order:fill markers stroke"/>
</g>
</svg>
